_includes/icons/color-flickr.svg

<svg fill="#666" height="50" viewBox="0 0 48 48" width="50" xmlns="http://www.w3.org/2000/svg"><path d="m6 10c0-2.199219 1.800781-4 4-4h28c2.199219 0 4 1.800781 4 4v28c0 2.199219-1.800781 4-4 4h-28c-2.199219 0-4-1.800781-4-4z" fill="#e1e7ea"/><path d="m23 24c0 3.867188-3.132812 7-7 7-3.867187 0-7-3.132812-7-7 0-3.867187 3.132813-7 7-7 3.867188 0 7 3.132813 7 7z" fill="#1565c0"/><path d="m39 24c0 3.867188-3.132812 7-7 7-3.867187 0-7-3.132812-7-7 0-3.867187 3.132813-7 7-7 3.867188 0 7 3.132813 7 7z" fill="#ff4081"/></svg>

<svg xmlns="http://www.w3.org/2000/svg" viewBox="0 0 48 48" width="50" height="50" fill="#666"><path d="M 6 10 C 6 7.800781 7.800781 6 10 6 L 38 6 C 40.199219 6 42 7.800781 42 10 L 42 38 C 42 40.199219 40.199219 42 38 42 L 10 42 C 7.800781 42 6 40.199219 6 38 Z" fill="#e1e7ea"/><path d="M 23 24 C 23 27.867188 19.867188 31 16 31 C 12.132813 31 9 27.867188 9 24 C 9 20.132813 12.132813 17 16 17 C 19.867188 17 23 20.132813 23 24 Z" fill="#1565c0"/><path d="M 39 24 C 39 27.867188 35.867188 31 32 31 C 28.132813 31 25 27.867188 25 24 C 25 20.132813 28.132813 17 32 17 C 35.867188 17 39 20.132813 39 24 Z" fill="#ff4081"/></svg>
